X: 21578
T: Kilkenny Ayre, The
R: waltz
M: 3/4
K: Fmajor
c cB|A3 G AB|c3 F fe|d3 c B2|c4 cB|A3 G AB|c4 A2|F2 DF BA|
G3 c cB|A3 G AB|c3 F fe|d3 c B2|c3 c de|f2 fd A2|e3 F Ac|d2 dBF2|
c3 F GA|B2 c2 A2|G4 GA|B3 A GF|FG G4|B2 c2 A2|G3 F E2|F3 F FG|
A3 F fe|d3 c de|f3 f fg|a2 [af]2 f2|c3 c de|fe dc AG|FD CA, G,A,|B,C DE FG|
A4 BA|G3 c cB|A3 G AB|c3 F fe|d3 c B2|c4 cB|A3 G AB|c4 A2|F2 DF BA|
G3 c cB|A3 G AB|c3 F fe|d3 c B2|c3 c de|f2 fd A2|e3 F Ac|d2 dB F2|
c3 F GA|B2 c2 A2|G4 GA|B3 A GF|FG G4|B2 c2 [dA]2|[eG]3 [Ff] [gE]2|[fF]6||

